src/assets/icon/company/M&S.svg

<svg width="200" height="80" viewBox="0 0 200 80" fill="none" xmlns="http://www.w3.org/2000/svg">
<path d="M87.4165 45.313C87.4165 36.3235 87.4165 27.3625 87.4165 18.3539C86.6166 18.3539 85.8357 18.3444 85.0548 18.3635C84.9596 18.3635 84.8453 18.4968 84.7882 18.592C84.1311 19.8395 83.4931 21.0965 82.836 22.3535C81.4933 24.9437 80.1411 27.5244 78.7983 30.1146C77.7984 32.0382 76.8081 33.9714 75.8177 35.895C75.6368 36.2473 75.4463 36.5901 75.2368 36.9806C74.8654 36.2854 74.5321 35.6569 74.1988 35.0284C73.2656 33.2286 72.3419 31.4288 71.4086 29.629C70.4945 27.8577 69.5612 26.096 68.647 24.3343C67.6567 22.4202 66.6758 20.5061 65.6759 18.592C65.6283 18.4968 65.495 18.373 65.3997 18.3635C64.6094 18.3444 63.8094 18.3539 63 18.3539C63 27.3625 63 36.333 63 45.313C63.8285 45.313 64.6284 45.313 65.4569 45.313C65.4569 38.0471 65.4569 30.8098 65.4569 23.582C65.4855 23.5724 65.514 23.5724 65.5426 23.5629C65.5997 23.6486 65.6569 23.7343 65.7045 23.8296C67.0186 26.3912 68.3328 28.9528 69.6564 31.5145C71.1706 34.457 72.6942 37.39 74.2179 40.3231C74.275 40.4373 74.4559 40.5516 74.5893 40.5611C74.9892 40.5897 75.3987 40.5611 75.7987 40.5802C75.9986 40.5897 76.1034 40.5135 76.1796 40.3516C76.4557 39.7993 76.7509 39.2565 77.0271 38.7137C78.1698 36.4759 79.3126 34.238 80.4648 32.0097C81.7218 29.5623 82.9884 27.1245 84.2454 24.6866C84.4549 24.2867 84.6644 23.8867 84.8739 23.4867C84.9025 23.4963 84.9406 23.5058 84.9691 23.5153C84.9691 30.7812 84.9691 38.0566 84.9691 45.3321C85.8357 45.313 86.6261 45.313 87.4165 45.313Z" fill="white"/>
<path d="M110.776 39.1346C110.614 38.9632 110.529 38.8394 110.681 38.5918C111.548 37.2205 112.386 35.8302 113.243 34.4493C113.547 33.9542 113.843 33.4685 114.157 32.9447C113.566 32.5734 113.014 32.2305 112.471 31.8687C112.262 31.7258 112.167 31.7544 112.033 31.9734C111.357 33.0971 110.662 34.2113 109.967 35.335C109.624 35.8968 109.281 36.4491 108.91 37.0396C107.034 34.9921 105.196 32.9924 103.348 30.9735C103.472 30.8878 103.548 30.8307 103.625 30.7735C104.996 29.8498 106.301 28.8404 107.215 27.431C108.357 25.6693 108.576 23.7838 107.71 21.8697C106.843 19.9556 105.291 18.87 103.225 18.5463C100.882 18.1844 98.8918 18.87 97.3967 20.727C96.1397 22.2792 95.8635 24.06 96.4539 25.9645C96.8634 27.2691 97.6728 28.3357 98.5585 29.3451C98.9013 29.7356 99.2632 30.1069 99.5869 30.4498C98.587 31.1449 97.5776 31.7734 96.6444 32.4972C95.2826 33.5447 94.197 34.8207 93.8256 36.5634C93.2447 39.2869 94.0732 41.5629 96.1397 43.3722C97.4538 44.5245 99.0346 45.1054 100.768 45.2768C103.853 45.5815 106.396 44.5911 108.338 42.1533C108.643 41.7629 108.929 41.3629 109.243 40.9439C110.005 41.7533 110.738 42.5437 111.471 43.3246C112.214 44.115 112.957 44.9054 113.709 45.7148C114.328 45.172 114.919 44.6673 115.5 44.1531C115.471 44.1055 115.461 44.0674 115.442 44.0483C113.89 42.4104 112.338 40.7725 110.776 39.1346ZM98.8441 25.4312C98.0538 23.5553 99.1203 21.2888 101.092 20.7555C102.672 20.327 104.434 20.7079 105.32 22.2697C106.053 23.5553 106.005 24.8884 105.31 26.174C104.691 27.3453 103.672 28.1452 102.577 28.8499C102.329 29.0118 102.082 29.1642 101.777 29.3546C101.13 28.6023 100.454 27.8881 99.8631 27.1168C99.4631 26.6026 99.0917 26.0312 98.8441 25.4312ZM107.148 40.0392C106.491 41.001 105.748 41.8581 104.71 42.4295C103.901 42.877 103.034 43.077 102.11 43.0961C99.9297 43.1437 98.1109 42.4295 96.8539 40.563C95.7588 38.9441 95.9111 36.6491 97.1681 35.1636C98.149 34.0113 99.3965 33.2304 100.682 32.4876C100.768 32.44 100.844 32.3924 100.93 32.3448C101.101 32.2401 101.225 32.2401 101.387 32.4115C103.272 34.4684 105.177 36.5253 107.072 38.5727C107.691 39.2584 107.681 39.2584 107.148 40.0392Z" fill="white"/>
<path d="M135.906 34.8418C135.201 33.5086 134.049 32.6516 132.735 31.985C130.992 31.0993 129.088 30.6327 127.231 30.0804C125.907 29.69 124.584 29.3186 123.384 28.6234C122.041 27.8521 121.231 26.7855 121.26 25.119C121.298 22.8907 122.746 21.2908 124.679 20.6909C126.183 20.2243 127.717 20.1481 129.259 20.4909C131.116 20.9004 132.592 21.8622 133.573 23.5287C133.83 23.9668 134.03 24.4334 134.259 24.9C134.611 24.7762 134.973 24.6524 135.325 24.5286C135.687 24.3953 136.049 24.2524 136.458 24.1001C136.354 23.8334 136.258 23.5954 136.154 23.3573C135.059 20.6433 133.002 19.053 130.221 18.3578C128.078 17.8245 125.936 17.8817 123.822 18.5673C122.784 18.9006 121.831 19.3958 121.003 20.11C119.689 21.2528 118.965 22.7097 118.822 24.4429C118.708 25.7666 118.841 27.0426 119.498 28.2425C120.308 29.709 121.603 30.6327 123.088 31.2422C124.65 31.8802 126.279 32.3849 127.897 32.8992C129.393 33.3753 130.907 33.7848 132.24 34.6323C133.021 35.118 133.706 35.7369 133.963 36.6416C134.659 39.089 133.583 41.8696 130.754 42.8219C129.412 43.279 128.031 43.4219 126.64 43.3076C124.755 43.1647 123.107 42.4601 121.717 41.1554C120.803 40.2889 120.108 39.2699 119.536 38.1272C118.841 38.5462 118.165 38.9652 117.441 39.4128C117.86 40.0508 118.232 40.6698 118.651 41.2507C119.555 42.4886 120.651 43.5266 122.003 44.2789C123.203 44.936 124.479 45.3264 125.85 45.4978C127.974 45.7549 130.05 45.6026 132.03 44.7455C134.373 43.7266 135.935 42.0125 136.468 39.4794C136.811 37.8796 136.677 36.3083 135.906 34.8418Z" fill="white"/>
<path d="M113.879 59.2317C113.765 59.1364 113.641 59.0603 113.518 58.9746C113.641 58.8603 113.737 58.7841 113.832 58.6889C114.451 58.0889 114.356 57.0224 113.632 56.5558C112.984 56.1463 112.28 56.1177 111.584 56.3844C110.813 56.6796 110.48 57.3366 110.718 58.127C110.813 58.4413 111.08 58.7079 111.289 59.0127C111.289 59.0127 111.242 59.0698 111.175 59.0984C110.232 59.6793 110.213 60.9934 111.146 61.6124C111.889 62.1076 113.099 62.0885 113.803 61.5648C114.584 61.0029 114.622 59.8602 113.879 59.2317ZM111.403 57.3843C111.518 57.0605 111.775 56.9557 112.07 56.8795C112.594 56.7462 113.184 56.9176 113.384 57.2605C113.556 57.5652 113.613 57.8794 113.413 58.2032C113.184 58.5746 112.822 58.6794 112.518 58.6889C111.603 58.6794 111.156 58.0985 111.403 57.3843ZM113.584 60.7458C113.375 61.26 112.918 61.3743 112.441 61.3553C111.594 61.3553 111.156 60.9553 111.194 60.2316C111.223 59.6888 111.661 59.3364 112.375 59.2983C113.308 59.2222 113.908 59.9364 113.584 60.7458Z" fill="white"/>
<path d="M108.309 59.248C108.185 59.1623 108.071 59.0766 107.919 58.9719C108.023 58.8862 108.099 58.829 108.185 58.7624C108.804 58.2386 108.804 57.1435 108.166 56.6578C107.461 56.1245 106.661 56.0865 105.881 56.4483C105.604 56.5816 105.338 56.8483 105.195 57.1244C104.852 57.8101 105.033 58.3243 105.738 58.9719C105.69 59.01 105.662 59.0576 105.614 59.0861C104.519 59.6956 104.728 61.1812 105.614 61.6668C106.319 62.0573 107.052 62.0668 107.814 61.7906C108.909 61.4002 109.156 59.8861 108.309 59.248ZM105.862 57.2768C106.043 56.9149 106.652 56.734 107.204 56.8768C107.795 57.0197 108.09 57.5339 107.899 58.0482C107.757 58.4481 107.366 58.6767 106.842 58.6767C105.976 58.6767 105.5 57.991 105.862 57.2768ZM108.033 60.6384C107.919 61.0955 107.48 61.3526 106.823 61.3526C105.938 61.3526 105.481 60.8479 105.633 60.0479C105.709 59.6289 106.119 59.3528 106.747 59.2861C107.661 59.2004 108.252 59.8194 108.033 60.6384Z" fill="white"/>
<path d="M81.1781 59.3918C82.0161 59.3918 82.8351 59.3918 83.6731 59.3918C83.6731 59.1442 83.6731 58.9252 83.6731 58.6681C82.8255 58.6681 81.997 58.6681 81.159 58.6681C81.159 58.0967 81.159 57.5634 81.159 56.9825C82.1018 56.9825 83.0255 56.9825 83.9778 56.9825C83.9778 56.7254 83.9778 56.5254 83.9778 56.2969C82.7874 56.2969 81.6161 56.2969 80.4258 56.2969C80.4258 58.1729 80.4258 60.0298 80.4258 61.8868C81.6733 61.8868 82.8922 61.8868 84.1111 61.8868C84.1111 61.6582 84.1111 61.4678 84.1111 61.2202C83.1207 61.2202 82.1494 61.2202 81.1686 61.2202C81.1781 60.5917 81.1781 60.0012 81.1781 59.3918Z" fill="white"/>
<path d="M88.5209 58.9153C88.0733 58.7153 87.5686 58.6201 87.1115 58.4391C86.5973 58.2391 86.4354 57.6487 86.7687 57.2393C87.0354 56.9155 87.4067 56.8583 87.7972 56.8774C88.4066 56.906 88.7971 57.2583 89.0637 57.7916C89.2923 57.7059 89.4827 57.6392 89.7208 57.5535C89.597 57.3345 89.5303 57.144 89.4065 56.9917C88.8542 56.287 88.121 56.1251 87.2734 56.2489C86.5497 56.3536 85.9878 56.8869 85.9021 57.5821C85.8069 58.3249 86.1307 58.8391 86.9116 59.1248C87.3972 59.3057 87.9019 59.4581 88.3876 59.6295C89.0447 59.858 89.2542 60.4484 88.8066 60.9246C88.6161 61.1341 88.2924 61.2674 88.0067 61.315C87.1687 61.4483 86.5687 61.0674 86.1688 60.2961C85.9593 60.4199 85.7688 60.5341 85.5879 60.6389C86.1402 62.134 88.1876 62.353 89.2066 61.5055C89.8065 61.0103 89.9779 60.1532 89.5113 59.5628C89.2637 59.2771 88.8828 59.0772 88.5209 58.9153Z" fill="white"/>
<path d="M119.089 56.2981C118.698 56.2315 118.403 56.241 118.155 56.5838C117.441 57.6028 116.708 58.6027 115.956 59.593C115.718 59.9073 115.718 60.212 115.784 60.5834C116.651 60.5834 117.508 60.5834 118.432 60.5834C118.432 61.0595 118.432 61.4785 118.432 61.888C118.679 61.888 118.87 61.888 119.098 61.888C119.098 61.45 119.098 61.0405 119.098 60.6215C119.317 60.6024 119.498 60.5739 119.67 60.5548C119.67 60.3263 119.67 60.1358 119.67 59.9358C119.47 59.9168 119.298 59.9073 119.079 59.8978C119.089 58.6788 119.089 57.498 119.089 56.2981ZM118.384 59.8882C117.775 59.8882 117.184 59.8882 116.518 59.8882C117.136 59.0217 117.727 58.2027 118.308 57.3933C118.336 57.4028 118.355 57.4123 118.384 57.4218C118.384 58.2408 118.384 59.0502 118.384 59.8882Z" fill="white"/>
<path d="M90.9102 56.973C91.5101 56.973 92.091 56.973 92.7195 56.973C92.7195 58.6395 92.7195 60.2584 92.7195 61.8772C92.9766 61.8772 93.2052 61.8772 93.4623 61.8772C93.4623 60.2298 93.4623 58.6204 93.4623 56.9635C94.0908 56.9635 94.6907 56.9635 95.2811 56.9635C95.2811 56.7064 95.2811 56.5064 95.2811 56.2969C93.8051 56.2969 92.3671 56.2969 90.9102 56.2969C90.9102 56.5349 90.9102 56.7349 90.9102 56.973Z" fill="white"/>
<path d="M101.605 56.2767C101.538 56.2767 101.433 56.3909 101.414 56.4576C101.338 56.8671 101.405 56.9242 101.814 56.9433C101.9 56.9433 101.995 56.9623 102.109 56.9814C102.109 58.6288 102.109 60.2477 102.109 61.8951C102.366 61.8951 102.585 61.8951 102.824 61.8951C102.824 60.0096 102.824 58.1622 102.824 56.2767C102.405 56.2672 102.005 56.2672 101.605 56.2767Z" fill="white"/>
<path d="M96.7213 61.0391C96.4261 61.0391 96.2928 61.1914 96.2738 61.4771C96.2643 61.7628 96.4547 61.9723 96.7118 61.9723C96.9499 61.9723 97.207 61.7247 97.1784 61.4866C97.1499 61.22 97.0166 61.0391 96.7213 61.0391Z" fill="white"/>
</svg>

<svg width="200" height="80" fill="none" xmlns="http://www.w3.org/2000/svg"><path d="M87.416 45.313v-26.96c-.8 0-1.58-.009-2.361.01-.095 0-.21.134-.267.229-.657 1.248-1.295 2.505-1.952 3.762-1.343 2.59-2.695 5.17-4.038 7.76-1 1.924-1.99 3.857-2.98 5.781-.181.352-.372.695-.581 1.086-.372-.696-.705-1.324-1.038-1.953-.933-1.8-1.857-3.6-2.79-5.399-.915-1.771-1.848-3.533-2.762-5.295-.99-1.914-1.971-3.828-2.971-5.742-.048-.095-.181-.219-.276-.229-.79-.019-1.59-.01-2.4-.01v26.96h2.457V23.582c.029-.01.057-.01.086-.02.057.087.114.172.161.268 1.315 2.561 2.629 5.123 3.952 7.685 1.515 2.942 3.038 5.875 4.562 8.808a.526.526 0 0 0 .371.238c.4.029.81 0 1.21.02.2.009.304-.068.38-.23.277-.552.572-1.094.848-1.637 1.143-2.238 2.286-4.476 3.438-6.704 1.257-2.448 2.523-4.885 3.78-7.323l.629-1.2c.029.01.067.019.095.028v21.817c.867-.019 1.657-.019 2.448-.019ZM110.776 39.135c-.162-.172-.247-.296-.095-.543.867-1.371 1.705-2.762 2.562-4.143.304-.495.6-.98.914-1.504-.591-.372-1.143-.715-1.686-1.076-.209-.143-.304-.115-.438.104-.676 1.124-1.371 2.238-2.066 3.362-.343.562-.686 1.114-1.057 1.705-1.876-2.048-3.714-4.048-5.562-6.066.124-.086.2-.143.277-.2 1.371-.924 2.676-1.934 3.59-3.343 1.142-1.762 1.361-3.647.495-5.561-.867-1.914-2.419-3-4.485-3.324-2.343-.362-4.333.324-5.828 2.181-1.257 1.552-1.534 3.333-.943 5.238.41 1.304 1.219 2.37 2.105 3.38.342.39.704.762 1.028 1.105-1 .695-2.01 1.323-2.943 2.047-1.361 1.048-2.447 2.324-2.818 4.066-.581 2.724.247 5 2.314 6.81 1.314 1.152 2.895 1.732 4.628 1.904 3.085.304 5.628-.686 7.57-3.124.305-.39.591-.79.905-1.21.762.81 1.495 1.6 2.228 2.382.743.79 1.486 1.58 2.238 2.39.619-.543 1.21-1.048 1.791-1.562-.029-.047-.039-.086-.058-.105a2110.65 2110.65 0 0 0-4.666-4.913ZM98.844 25.43c-.79-1.876.276-4.142 2.248-4.675 1.58-.429 3.342-.048 4.228 1.514.733 1.285.685 2.618-.01 3.904-.619 1.171-1.638 1.971-2.733 2.676-.248.162-.495.314-.8.505-.647-.753-1.323-1.467-1.914-2.238-.4-.514-.771-1.086-1.019-1.686Zm8.304 14.608c-.657.962-1.4 1.82-2.438 2.39-.809.448-1.676.648-2.6.667-2.18.048-4-.666-5.256-2.533-1.095-1.619-.943-3.914.314-5.4.981-1.152 2.228-1.933 3.514-2.675.086-.048.162-.096.248-.143.171-.105.295-.105.457.066 1.885 2.057 3.79 4.114 5.685 6.162.619.685.609.685.076 1.466ZM135.906 34.842c-.705-1.333-1.857-2.19-3.171-2.857-1.743-.886-3.647-1.352-5.504-1.905-1.324-.39-2.647-.761-3.847-1.457-1.343-.77-2.153-1.838-2.124-3.504.038-2.228 1.486-3.828 3.419-4.428a8.798 8.798 0 0 1 4.58-.2c1.857.41 3.333 1.371 4.314 3.038.257.438.457.904.686 1.371.352-.124.714-.248 1.066-.371.362-.134.724-.277 1.133-.429-.104-.267-.2-.505-.304-.743-1.095-2.714-3.152-4.304-5.933-5-2.143-.532-4.285-.475-6.399.21-1.038.334-1.991.829-2.819 1.543-1.314 1.143-2.038 2.6-2.181 4.333-.114 1.324.019 2.6.676 3.8.81 1.466 2.105 2.39 3.59 3 1.562.637 3.191 1.142 4.809 1.656 1.496.476 3.01.886 4.343 1.733.781.486 1.466 1.105 1.723 2.01.696 2.447-.38 5.228-3.209 6.18-1.342.457-2.723.6-4.114.486-1.885-.143-3.533-.848-4.923-2.153-.914-.866-1.609-1.885-2.181-3.028-.695.42-1.371.838-2.095 1.286.419.638.791 1.257 1.21 1.838.904 1.238 2 2.276 3.352 3.028 1.2.657 2.476 1.047 3.847 1.219 2.124.257 4.2.105 6.18-.752 2.343-1.02 3.905-2.733 4.438-5.267.343-1.6.209-3.17-.562-4.637ZM113.879 59.232c-.114-.096-.238-.172-.361-.257.123-.115.219-.19.314-.286.619-.6.524-1.667-.2-2.133-.648-.41-1.352-.438-2.048-.172-.771.296-1.104.953-.866 1.743.095.314.362.58.571.886 0 0-.047.057-.114.085-.943.581-.962 1.895-.029 2.514.743.496 1.953.477 2.657-.047a1.477 1.477 0 0 0 .076-2.333Zm-2.476-1.848c.115-.324.372-.428.667-.505.524-.133 1.114.039 1.314.382.172.304.229.618.029.942-.229.372-.591.476-.895.486-.915-.01-1.362-.59-1.115-1.305Zm2.181 3.362c-.209.514-.666.628-1.143.61-.847 0-1.285-.4-1.247-1.124.029-.543.467-.896 1.181-.934.933-.076 1.533.638 1.209 1.448ZM108.309 59.248c-.124-.086-.238-.171-.39-.276.104-.086.18-.143.266-.21.619-.523.619-1.618-.019-2.104-.705-.534-1.505-.572-2.285-.21-.277.134-.543.4-.686.676-.343.686-.162 1.2.543 1.848-.048.038-.076.086-.124.114-1.095.61-.886 2.095 0 2.58.705.391 1.438.4 2.2.125 1.095-.39 1.342-1.905.495-2.543Zm-2.447-1.971c.181-.362.79-.543 1.342-.4.591.143.886.657.695 1.171-.142.4-.533.629-1.057.629-.866 0-1.342-.686-.98-1.4Zm2.171 3.361c-.114.458-.553.715-1.21.715-.885 0-1.342-.505-1.19-1.305.076-.42.486-.695 1.114-.762.914-.086 1.505.533 1.286 1.352ZM81.178 59.392h2.495v-.724H81.16v-1.685h2.819v-.686h-3.552v5.59h3.685v-.667H81.17c.01-.628.01-1.219.01-1.828ZM88.52 58.915c-.447-.2-.951-.295-1.408-.476-.515-.2-.677-.79-.343-1.2.266-.323.638-.38 1.028-.362.61.029 1 .381 1.267.915.228-.086.419-.153.657-.239-.124-.218-.19-.409-.315-.561-.552-.705-1.285-.867-2.133-.743-.723.105-1.285.638-1.37 1.333-.096.743.228 1.257 1.009 1.543.485.18.99.333 1.476.505.657.228.866.818.419 1.295-.19.21-.515.342-.8.39-.838.133-1.438-.248-1.838-1.019-.21.124-.4.238-.581.343.552 1.495 2.6 1.714 3.619.866.6-.495.77-1.352.304-1.942-.247-.286-.628-.486-.99-.648ZM119.089 56.298c-.391-.067-.686-.057-.934.286a97.255 97.255 0 0 1-2.199 3.009c-.238.314-.238.619-.172.99h2.648v1.305h.666v-1.267c.219-.019.4-.047.572-.066v-.62c-.2-.018-.372-.028-.591-.037.01-1.22.01-2.4.01-3.6Zm-.705 3.59h-1.866c.618-.866 1.209-1.685 1.79-2.495.028.01.047.02.076.029v2.466ZM90.91 56.973h1.81v4.904h.742v-4.913h1.82v-.667H90.91v.676ZM101.605 56.277c-.067 0-.172.114-.191.18-.076.41-.009.467.4.486.086 0 .181.02.295.038v4.914h.715v-5.618a26.07 26.07 0 0 0-1.219 0ZM96.721 61.04c-.295 0-.428.151-.447.437-.01.286.18.495.438.495.238 0 .495-.247.466-.485-.028-.267-.161-.448-.457-.448Z" fill="#fff"/></svg>
